X:1
T:Day of Glory
T:Charles Wood
T:Day of Glory
T:aCourtesy of the Cyber Hymnal (http://www.cyberhymnal.org)
C:Charles Wood
Z:aCourtesy of the Cyber Hymnal (http://www.cyberhymnal.org)
%%score { ( 1 2 ) ( 3 4 ) }
L:1/8
Q:1/4=107
M:1/4
K:C
V:1 treble nm="P1"
V:2 treble 
V:3 bass nm="P2"
V:4 bass 
V:1
"^Editor: John Henry Fowler" A2 |[M:3/4] e3 e Bc | d2 d3 .A | c3 d Bc | A4 A2 | e3 e Bc | %6
"^( 1866 - 1926 )" d2 d3 A | c3 z Bc | A4 A2 | B3 ^G AB | [Ec]2 [Ec]2 z [EA] | %11
 [Dd]3 [Dc] [FB][FA] | [E^G]4 [EA]2 | B3 ^G AB | c2 c2 z A | [FB]3 [FA] [EA][E^G] |[M:2/4] [CA]4 |] %17
V:2
 A2 |[M:3/4] A3 A BA | A2 A3 A | A2 A2 A^G | A4 A2 | A3 A BA | A2 A3 A | A2 A2 A^G | A4 E2 | %9
 E3 E EE | x6 | x6 | x6 | E3 E ^F^G | A2 A2 x E | x6 |[M:2/4] x4 |] %17
V:3
 [A,C]2 |[M:3/4] [CE]3 [A,C] EE | F2 F3 D | E2 F2 EE | [A,C]4 [A,C]2 | E3 C EE | F2 F3 D | %7
 E2 F2 EE | C4 C2 | ^G,3 B, A,G, | [A,,A,]2 [A,,A,]2 z [C,A,] | [F,A,]3 [F,A,] [D,D][D,C] | %12
 [E,B,]4 [A,C]2 | B,3 B, EE | E2 E2 z E | D3 D B,B, |[M:2/4] A,4 |] %17
V:4
 x2 |[M:3/4] x4 ^G,A, | D,2 D,3 F, | A,2 D,2 E,E, | x6 | C3 A, ^G,A, | D,2 D,3 F, | A,2 D,2 E,E, | %8
 A,4 A,,2 | E,3 D, C,B,, | x6 | x6 | x6 | ^G,3 E, E,D, | C,2 A,,2 z C, | D,3 D, E,E, | %16
[M:2/4] A,,4 |] %17

